X:309
T:Return to Milltown
Z: id:dc-reel-286
M:C
L:1/8
K:D Dorian
A,|D3G FEDB,|C2EC FCEC|D3G FEDE|FDEC DCA,C|!
D3G FEDB,|C2EC FCEC|F3D E3C|DFEC D3:|!
K:D Major
A|dcde f2ed|cdef g2fe|dcde f2ed|cAGE EDD2|!
dcde f2ed|cdef g2fe|fgfd efed|cAGE EDD:|!

